src/dark/hiso font dark_p16-pen.svg

<svg xmlns="http://www.w3.org/2000/svg" width="126" height="126" viewBox="0 0 126 126"><path fill="#000101" d="M0 76.5v27l27 13.5 54-27 27-40.5h-54l-54 27zm18.01-5.639l20.29 10.139-11.3 5.65-20.29-10.15 11.29-5.639h.01zm62.99 13.729v-21.59l14.65-7.172v6.786l-14.65 21.976zm7.994-32.09l3.152 1.577-14.492 7.25-17.654-8.827h28.994zm-34.994.35l20.3 10.15-29.29 14.65-20.29-10.15 29.28-14.65zm-12 53.3v-23.65l6-3v23.649l-6 3.001zm-39-28.15l24 12.004v23.646l-24-12.01v-23.64z"/></svg>

<svg xmlns="http://www.w3.org/2000/svg" width="126" height="126"><path fill="#000101" d="M0 76.5v27L27 117l54-27 27-40.5H54l-54 27zm18.01-5.639L38.3 81 27 86.65 6.71 76.5 18 70.861h.01zM81 84.59V63l14.65-7.172v6.786L81 84.59zm7.994-32.09l3.152 1.577-14.492 7.25L60 52.5h28.994zM54 52.85L74.3 63 45.01 77.65 24.72 67.5 54 52.85zm-12 53.3V82.5l6-3v23.649l-6 3.001zM3 78l24 12.004v23.646L3 101.64V78z"/></svg>
